icons/op-export-24.svg

<svg width="24" height="24" viewBox="0 0 24 24" fill="none" xmlns="http://www.w3.org/2000/svg">
<path d="M20 12L15.9062 7.875V11H9.96875V13H15.9062V16.125L20 12ZM13.9375 20H4V4H13.9375V9H11.9375V6H6V18H11.9375V15H13.9375V20Z" fill="black"/>
</svg>

<svg xmlns="http://www.w3.org/2000/svg" width="24" height="24" viewBox="0 0 24 24"><path d="m20 12-4.094-4.125V11H9.969v2h5.937v3.125L20 12Zm-6.062 8H4V4h9.938v5h-2V6H6v12h5.938v-3h2v5Z"/></svg>
